X:1
T: The Big Law Burn
C:
R:Strathspey
Q:128
K:C
M:4/4
L:1/16
|:c3d|e3c G3c e3c G3c|A3G Ac3 G4 c3d|e3c G3c g4 e4|d12 c3d|
e3c G3c e3c G3c|A3G Ac3 G4 c3d|e3G g3e d3G e3d|c12 e3f|
g8 e3c G3c|g3G g3G f4 d3e|f8 d3G d3e|f3F f3F d4 e3f|
g8 e3c G3c|g3G g3G f4 d3e|f8 g3G f3F|g3G e3d c4:|
